/* XPM */
static char * maximize_inactive_xpm[] = {
"24 24 15 1",
" 	c None",
".	c #0E0B04",
"+	c #FBBF24",
"@	c #0E0B04",
"#	c #2E333E",
"$	c #2B303A",
"%	c #292E37",
"&	c #282D36",
"*	c #292E36",
"=	c #2B3039",
"-	c #2D323C",
";	c #2A3038",
">	c #2C313B",
",	c #2A2E36",
"'	c #2F333E",
"........................",
"++++++++++++++++++++++++",
"@@@@@@@@@@@@@@@@@@@@@@@@",
"@@@@@@@@@@@@@@@@@@@@@@@@",
"@@@@@@@@@@@@@@@@@@@@@@@@",
"@@@@@@@@#$%&&*=#@@@@@@@@",
"@@@@@@@-&;====;*-@@@@@@@",
"@@@@@@>*========*>@@@@@@",
"@@@@@#&==========*#@@@@@",
"@@@@@=;==========;=@@@@@",
"@@@@@*============,@@@@@",
"@@@@@&============*@@@@@",
"@@@@@&============*@@@@@",
"@@@@@*============,@@@@@",
"@@@@@=;==========;=@@@@@",
"@@@@@#&==========*'@@@@@",
"@@@@@@>*========*>@@@@@@",
"@@@@@@@-&;====;*-@@@@@@@",
"@@@@@@@@#$%&&*$#@@@@@@@@",
"@@@@@@@@@@@@@@@@@@@@@@@@",
"@@@@@@@@@@@@@@@@@@@@@@@@",
"@@@@@@@@@@@@@@@@@@@@@@@@",
"@@@@@@@@@@@@@@@@@@@@@@@@",
"@@@@@@@@@@@@@@@@@@@@@@@@"};
