/* XPM */
static char * menu_active_xpm[] = {
"16 22 3 1",
" 	c None",
".	c #0E0B04",
"+	c #A4AAB7",
"................",
"................",
"................",
"................",
"................",
"................",
"................",
"................",
"................",
"....+......+....",
"....++....++....",
".....++..++.....",
"......++++......",
".......++.......",
"................",
"................",
"................",
"................",
"................",
"................",
"................",
"................"};
