/* XPM */
static char * stick_pressed_xpm[] = {
"16 22 3 1",
" 	c None",
".	c #140F06",
"+	c #5294E2",
"................",
"................",
"................",
"................",
"................",
"................",
"................",
".......++.......",
".......++.......",
".......++.......",
"....++++++++....",
"....++++++++....",
".......++.......",
".......++.......",
".......++.......",
"................",
"................",
"................",
"................",
"................",
"................",
"................"};
