/* XPM */
static char * menu_inactive_xpm[] = {
"16 22 3 1",
" 	c None",
".	c #060A08",
"+	c #797D87",
"................",
"................",
"................",
"................",
"................",
"................",
"................",
"................",
"................",
"....+......+....",
"....++....++....",
".....++..++.....",
"......++++......",
".......++.......",
"................",
"................",
"................",
"................",
"................",
"................",
"................",
"................"};
