/* XPM */
static char * shade_active_xpm[] = {
"16 22 3 1",
" 	c None",
".	c #060A08",
"+	c #A4AAB7",
"................",
"................",
"................",
"................",
"................",
"................",
"................",
"................",
".......++.......",
"......++++......",
".....++++++.....",
"....++++++++....",
"................",
"....++++++++....",
"....++++++++....",
"................",
"................",
"................",
"................",
"................",
"................",
"................"};
