/* XPM */
static char * menu_pressed_xpm[] = {
"16 22 3 1",
" 	c None",
".	c #0E0A17",
"+	c #5294E2",
"................",
"................",
"................",
"................",
"................",
"................",
"................",
"................",
"................",
"....+......+....",
"....++....++....",
".....++..++.....",
"......++++......",
".......++.......",
"................",
"................",
"................",
"................",
"................",
"................",
"................",
"................"};
